X:288
T:Luther Lively
C:
N:Transcribed by Tristan Scroggins Based on Dick Barrett's version from At the Fiddler's Knee
R:bluegrass
L:1/8
Q:1/4=180
M:4/4
K:G
z6 Bc/^c/ | dB eB dB GA | Bd ga bg ag | fa gb ag ed | ga ge dc BG | Bd de dB GA | 
Bd ga bg ag | fa gb ag ed | [g2d2] [g6B6] | [g4d4] [gd][g3B3] | Bd ga bg ag | 
fa gb ag ed | ga ge dc BG | Bd de dB GA | Bd ga bg ag | fa gb ag ed | ga gd fg fd | 
K:C
e^f gf ga gd | ea ge dc Ac | BA GB AG EG | cB cA GE C2 | z[g2c2E2]z/G,/ [g4c4E4G,4] | 
e^f ge dB Ad | BA GB AG EG | [c2E2] [cE][cE] [c2E2] (3G,A,B, | C2 g^f ga gd | 
ef ge dB Ac | BA GB AG EG | cB cA GE C2 | e[g2c2E2]z/G,/ [g4c4E4G,4] | e^f ge dB Ad | 
BA GB AG BA | [cE][BE] [c2E2] [^c2E2] c2 | d2 (3ded B4 | 
K:G
Bd ga bg ag | "ETC..."z8 | 


